X: 1
T: Lonely January
C: Jerry Holland (Jan 99)
S: Handwritten page from the Boston Scottish Fiddle Club
Z: John Chambers <jc:trillian.mit.edu>
M: 6/8
L: 1/8
K: A
|: "A"ABA AEC | A,B,A, A,CE | "E7"BcB Bcd | "A"cAc "E7"BGB \
|  "A"ABA AEC | A,B,A, A,CE | "Bm"dcB "A"cBA | "E7"EFG "A"A2B :|
|| "A"cdc cBc | efe ecA | "Bm"dcB "A"cBA | "Bm"FBB "E7"Bcd \
|  "A"cdc cBc | efe ece | "D"fed "E7"cdB | "A"cAA A2B ||
|| "A"cdc cBc | efe ecA | "Bm"dcB "A"cBA | "Bm"FBB "E7"BcB \
|  "A"ABc "Bm"Bcd | "A"cde "D"fed | "A"cec "E7"BAB | "A"cAA A2 |]
